packages/components/src/assets/icons/cancel.svg

<svg width="24" height="24" viewBox="0 0 24 24" fill="none" xmlns="http://www.w3.org/2000/svg">
<path fill-rule="evenodd" clip-rule="evenodd" d="M8.0001 17.3333C7.63191 17.7015 7.03496 17.7015 6.66677 17.3333C6.29858 16.9651 6.29858 16.3682 6.66677 16L10.6668 12L6.66681 7.99998C6.29862 7.63179 6.29862 7.03484 6.66681 6.66665C7.035 6.29846 7.63195 6.29846 8.00014 6.66665L12.0001 10.6666L16.0001 6.66665C16.3683 6.29846 16.9652 6.29846 17.3334 6.66665C17.7016 7.03484 17.7016 7.63179 17.3334 7.99998L13.3335 12L17.3335 16C17.7017 16.3682 17.7017 16.9651 17.3335 17.3333C16.9653 17.7015 16.3683 17.7015 16.0001 17.3333L12.0001 13.3333L8.0001 17.3333Z" fill="#828187"/>
</svg>

<svg width="24" height="24" fill="none" xmlns="http://www.w3.org/2000/svg">
  <path fill="currentColor" fill-rule="evenodd" d="M8 17.333A.943.943 0 1 1 6.667 16l4-4-4-4A.943.943 0 1 1 8 6.667l4 4 4-4A.943.943 0 1 1 17.333 8l-4 4 4 4A.943.943 0 1 1 16 17.333l-4-4-4 4Z" clip-rule="evenodd"/>
</svg>
